X: 2573
T: Ballymagan Fairies
R: reel
M: 4/4
K: Gmajor
|:G3 d ABBA|GABd cABA|GABG ABcd|(3ddd fd gedB|
G3 d ABBA|GABd cABA|GABG ABcd|(3ddd fd g2 ga:|
|:bagb agfa|gfeg fedf|edce dcBc|ABcd efga|
bagb agfa|gfeg fedf|edce dcBc|AGFA Gbbb:|

